packages/web-icons/svgs/download_2.svg

<svg viewBox="0 0 42 48" xmlns="http://www.w3.org/2000/svg" class="ridi_icon"><path d="M5 25.8l14.6 10.6c.3.3.6.4 1 .5h.7c.2 0 .4-.1.6-.2h.2c.1 0 .1-.1.2-.1L37 25.8c.9-.7 1.1-2 .5-2.9-.7-.9-2-1.1-2.9-.5l-11.4 8.3V2.1C23.1.9 22.2 0 21 0c-1.2 0-2.1.9-2.1 2.1v28.6L7.5 22.4c-.9-.7-2.3-.5-2.9.5-.7.9-.5 2.2.4 2.9zm34.3 8.7c-1.2 0-2.1.9-2.1 2.1v7.2H4.8v-7.2c0-1.2-.9-2.1-2.1-2.1-1.2 0-2.1.9-2.1 2.1v9.3c0 1.2.9 2.1 2.1 2.1h36.7c1.2 0 2.1-.9 2.1-2.1v-9.3c0-1.2-1-2.1-2.2-2.1z"/></svg>

<?xml version="1.0" encoding="UTF-8"?>
<svg width="42px" height="48px" viewBox="0 0 42 48" version="1.1" xmlns="http://www.w3.org/2000/svg">
  <!-- Generator: Sketch 41.2 (35397) - http://www.bohemiancoding.com/sketch -->
  <title>download_2</title>
  <desc>Created with Sketch.</desc>
  <defs></defs>
  <g id="Page-1" stroke="none" stroke-width="1" fill="none" fill-rule="evenodd">
    <g id="download_2" fill="#444444">
      <g id="레이어_1">
        <path d="M5,25.8 L19.6,36.4 C19.9,36.7 20.2,36.8 20.6,36.9 L20.6,36.9 L20.9,36.9 L21.2,36.9 L21.3,36.9 C21.5,36.9 21.7,36.8 21.9,36.7 L22,36.7 L22.1,36.7 C22.2,36.7 22.2,36.6 22.3,36.6 L37,25.8 C37.9,25.1 38.1,23.8 37.5,22.9 C36.8,22 35.5,21.8 34.6,22.4 L23.2,30.7 L23.2,2.1 C23.1,0.9 22.2,0 21,0 C19.8,0 18.9,0.9 18.9,2.1 L18.9,30.7 L7.5,22.4 C6.6,21.7 5.2,21.9 4.6,22.9 C3.9,23.8 4.1,25.1 5,25.8 L5,25.8 Z M39.3,34.5 C38.1,34.5 37.2,35.4 37.2,36.6 L37.2,43.8 L4.8,43.8 L4.8,36.6 C4.8,35.4 3.9,34.5 2.7,34.5 C1.5,34.5 0.6,35.4 0.6,36.6 L0.6,45.9 C0.6,47.1 1.5,48 2.7,48 L39.4,48 C40.6,48 41.5,47.1 41.5,45.9 L41.5,36.6 C41.5,35.4 40.5,34.5 39.3,34.5 Z" id="Shape"></path>
      </g>
    </g>
  </g>
</svg>
